svgs/light/hand-peace.svg

<svg xmlns="http://www.w3.org/2000/svg" viewBox="0 0 512 512"><!--! Font Awesome Pro 6.0.0-alpha3 by @fontawesome - https://fontawesome.com License - https://fontawesome.com/license (Commercial License) --><path d="M392 176.1c-9.785 0-18.85 2.744-26.87 7.174c-7.195-22.62-28.15-39.17-53.13-39.17c-5.525 0-10.76 1.051-15.81 2.549c0 0 7.808-89.09 7.808-90.73c0-21.37-16.72-55.91-55.72-55.91c-28.59 0-53.48 21.86-56.06 51.04L180.2 186.5L123.8 50.12c-8.923-21.5-29.84-34.53-51.84-34.53c-29.49 0-55.93 23.37-55.93 55.93c0 7.28 1.437 14.56 4.303 21.49l72.23 174.4c-26.08 8.406-44.52 32.87-44.52 60.69v63.98c0 19.89 8.998 38.29 24.72 50.5l46.03 35.8C146.7 500 181.6 512 216.9 512h79.06C379.8 512 448 443.8 448 360V232.1C448 201.2 422.9 176.1 392 176.1zM288 200c0-13.23 10.78-24 24-24s24 10.77 24 24v96c0 13.23-10.78 24-24 24S288 309.2 288 296V200zM224.1 53.85c1.094-12.5 11.68-21.88 23.94-21.88c12.79 0 23.97 10.31 23.97 23.96c0 .7104-.0313 1.425-.0943 2.141L261.4 176.4c-3.393 7.213-5.434 15.17-5.434 23.65v37.75L255.1 248.6c-9.529-5.328-20.38-8.396-31.67-8.396c-4.216 0-8.495 .4278-12.79 1.325L207.4 242.2L224.1 53.85zM49.87 80.75C48.63 77.78 48.01 74.67 48.01 71.56c0-12.57 9.966-23.99 24.02-23.99c9.43 0 18.33 5.603 22.17 14.81L170.7 247.1c.4121 .9863 1.146 1.693 1.721 2.551L124.1 260L49.87 80.75zM296 480H216.9c-28.28 0-56.18-9.561-78.56-26.93l-46.03-35.79c-7.717-6.014-12.34-15.46-12.34-25.26v-63.98c0-14.1 10.62-28.15 25.28-31.29L217.2 272.8c2.201-.4537 4.399-.672 6.566-.672c15.79 0 32.22 12.48 32.22 31.98c0 14.74-10.29 28.03-25.28 31.25l-74.06 15.86c-7.528 1.603-12.67 8.238-12.67 15.62c0 9.759 8.252 16.02 16.01 16.02c1.109 0 2.229-.1203 3.344-.3708l74.06-15.86c16.94-3.633 30.8-13.73 39.72-27.1c9.6 7.715 21.62 12.53 34.87 12.53c9.785 0 18.85-2.744 26.87-7.174c7.193 22.62 28.15 39.16 53.13 39.16c7.822 0 15.26-1.635 22.03-4.545C404.7 436.4 355.5 480 296 480zM416 328c0 13.23-10.78 23.99-24 23.99c-13.22 0-24.1-10.85-24.1-24.08l.1064-95.89c0-13.23 10.78-23.99 23.1-23.99c13.22 0 24 10.76 24 23.99V328z"/></svg>

<svg xmlns="http://www.w3.org/2000/svg" viewBox="0 0 512 512"><!-- Font Awesome Pro 6.0.0-alpha2 by @fontawesome - https://fontawesome.com License - https://fontawesome.com/license (Commercial License) --><path d="M392.002 176.086C382.217 176.086 373.149 178.83 365.135 183.26C357.94 160.641 336.981 144.094 312.008 144.094C306.483 144.094 301.249 145.145 296.202 146.643L303.79 60.881C303.937 59.212 304.009 57.554 304.009 55.909C304.009 34.539 287.291 0 248.289 0C219.698 0 194.812 21.856 192.233 51.039L180.249 186.471L123.768 50.117C114.845 28.619 93.924 15.588 71.926 15.588C42.431 15.588 16 38.955 16 71.513C16 78.793 17.437 86.074 20.303 92.998L92.538 267.354C66.461 275.76 48.022 300.219 48.022 328.047V392.029C48.022 411.916 57.02 430.316 72.739 442.533L118.768 478.336C146.704 500.049 181.577 512 216.95 512H296.008C379.817 512 448.001 443.83 448.001 360.039V232.07C448.001 201.203 422.877 176.086 392.002 176.086ZM288.001 200C288.001 186.766 298.782 176 312.001 176S336.001 186.766 336.001 200V296C336.001 309.234 325.219 320 312.001 320S288.001 309.234 288.001 296V200ZM224.106 53.852C225.2 41.356 235.787 31.97 248.045 31.97C260.835 31.97 272.011 42.283 272.011 55.928C272.011 56.638 271.98 57.352 271.917 58.068L261.444 176.426C258.051 183.639 256.01 191.598 256.01 200.08V237.828L255.061 248.561C245.532 243.232 234.686 240.165 223.395 240.165C219.179 240.165 214.901 240.593 210.606 241.49L207.442 242.168L224.106 53.852ZM49.866 80.75C48.631 77.782 48.014 74.67 48.014 71.56C48.014 58.985 57.98 47.571 72.032 47.571C81.462 47.571 90.359 53.174 94.206 62.381L170.733 247.113C171.145 248.1 171.879 248.807 172.454 249.664L124.133 260.016L49.866 80.75ZM296.008 480.008H216.95C188.67 480.008 160.766 470.447 138.391 453.076L92.362 417.289C84.645 411.275 80.02 401.824 80.02 392.029V328.047C80.02 313.051 90.643 299.896 105.299 296.758L217.231 272.779C219.432 272.326 221.63 272.107 223.797 272.107C239.591 272.107 256.013 284.583 256.013 304.09C256.013 318.834 245.719 332.124 230.731 335.342L156.672 351.197C149.145 352.801 144.004 359.435 144.004 366.819C144.004 376.577 152.256 382.841 160.016 382.841C161.125 382.841 162.245 382.721 163.36 382.471L237.418 366.615C254.356 362.982 268.219 352.883 277.143 339.512C286.743 347.227 298.764 352.041 312.008 352.041C321.793 352.041 330.86 349.297 338.874 344.867C346.067 367.486 367.028 384.031 392.002 384.031C399.825 384.031 407.266 382.396 414.036 379.486C404.665 436.369 355.502 480.008 296.008 480.008ZM416.002 328.047C416.002 341.277 405.221 352.041 392.002 352.041C378.786 352.041 368.004 341.277 368.004 328.047V232.07C368.004 218.84 378.786 208.076 392.002 208.076C405.221 208.076 416.002 218.84 416.002 232.07V328.047Z"/></svg>
